app/img/symbol-slash-mobile.svg

<svg width="22" height="24" viewBox="0 0 22 24" fill="none" xmlns="http://www.w3.org/2000/svg">
<path fill-rule="evenodd" clip-rule="evenodd" d="M15.9978 13.3507H9.8877L12.5799 5.18478L15.6257 5.20274L13.8571 10.588L16.8939 10.5898L15.9978 13.3507Z" fill="url(#paint0_linear)"/>
<path fill-rule="evenodd" clip-rule="evenodd" d="M3.52421 23.9512H0.5C0.5 23.9512 6.00834 7.04374 7.29462 3.0969C7.89641 1.25027 9.62162 0 11.5682 0H16.9748C18.6052 0 19.9659 0.686832 20.812 1.84746C21.6574 3.00814 21.8972 4.49328 21.4042 6.00835C20.9106 7.52343 20.4443 8.95362 20.0174 10.264C19.4411 12.0334 17.8444 13.2526 15.9983 13.3517C15.9983 13.3517 15.9888 13.3486 18.5753 5.40888C18.8037 4.70822 18.7203 4.0224 18.3616 3.53053C18.0034 3.03872 17.3991 2.74765 16.5994 2.74765H11.9601C11.0491 2.74765 10.2419 3.33271 9.96004 4.19687L3.52421 23.9512Z" fill="#F0145A"/>
<defs>
<linearGradient id="paint0_linear" x1="9.88726" y1="11.7866" x2="16.6762" y2="15.3446" gradientUnits="userSpaceOnUse">
<stop stop-color="#F0145A"/>
<stop offset="1" stop-color="#693264"/>
</linearGradient>
</defs>
</svg>

<svg width="22" height="24" fill="none" xmlns="http://www.w3.org/2000/svg"><path fill-rule="evenodd" clip-rule="evenodd" d="M15.998 13.35h-6.11l2.692-8.165 3.046.018-1.769 5.385 3.037.002-.896 2.76z" fill="url(#paint0_linear)"/><path fill-rule="evenodd" clip-rule="evenodd" d="M3.524 23.951H.5L7.295 3.097A4.493 4.493 0 0111.568 0h5.407c1.63 0 2.99.687 3.837 1.847.845 1.161 1.085 2.646.592 4.161l-1.387 4.256a4.474 4.474 0 01-4.019 3.088s-.01-.003 2.577-7.943c.229-.7.145-1.387-.213-1.878-.359-.492-.963-.783-1.763-.783H11.96c-.91 0-1.718.585-2 1.449L3.524 23.95z" fill="#F0145A"/><defs><linearGradient id="paint0_linear" x1="9.887" y1="11.787" x2="16.676" y2="15.345" gradientUnits="userSpaceOnUse"><stop stop-color="#F0145A"/><stop offset="1" stop-color="#693264"/></linearGradient></defs></svg>
